X:79
T: Hongri zhaozai dong shan shang
N: C0101
O: China, Hubei, Wufeng
S: I, 360]
N: 1 Strophe besteht aus fuenf Saetzen. Neues Volkslied
N: Einige Verzierungen.
R: Shange, Wujuzi. Xin minge]
M: 2/4
L: 1/16
K: C
G2G2AcA2 | G6A2 | g2g2ege2 | d8
deggege2 | d3edeA2 | c2c2AcA2 | G8
G2G2AcA2 | d2dcd6de | c2d4cA | G8
d2dcAcA2 | G8 | g2g2c2ge | d6
ee | deg2ege2 | d3edeA2 | c2c2AcA2 | G8

